svgs/sharp-regular/fire-extinguisher.svg

<svg xmlns="http://www.w3.org/2000/svg" viewBox="0 0 512 512"><!--! Font Awesome Pro 6.6.0 by @fontawesome - https://fontawesome.com License - https://fontawesome.com/license (Commercial License) Copyright 2024 Fonticons, Inc. --><path d="M200 0l0 24 0 32 88 0 0-24L512 0l0 160L288 128l0-24-88 0 0 26.6c50.3 11 88 55.8 88 109.4l0 224 0 48-48 0-128 0-48 0 0-48 0-224c0-53.6 37.7-98.4 88-109.4l0-25.6c-46.9 5.5-86.5 34.8-106.3 75.6l-43.1-21C30.1 102.8 86.1 62.4 152 56.7L152 24l0-24 48 0zM112 464l128 0 0-48-128 0 0 48zm0-224l0 128 128 0 0-128c0-35.3-28.7-64-64-64s-64 28.7-64 64z"/></svg>

<svg xmlns="http://www.w3.org/2000/svg" viewBox="0 0 512 512"><!--! Font Awesome Pro 6.5.2 by @fontawesome - https://fontawesome.com License - https://fontawesome.com/license (Commercial License) Copyright 2024 Fonticons, Inc. --><path d="M200 0V24 56h88V32L512 0V160L288 128V104H200v26.6c50.3 11 88 55.8 88 109.4V464v48H240 112 64V464 240c0-53.6 37.7-98.4 88-109.4V104.9c-46.9 5.5-86.5 34.8-106.3 75.6l-43.1-21C30.1 102.8 86.1 62.4 152 56.7V24 0h48zM112 464H240V416H112v48zm0-224V368H240V240c0-35.3-28.7-64-64-64s-64 28.7-64 64z"/></svg>
